X:59
T:Fiddle Contest Breakdo
R:reel
C:Bruce Osborne - 2003
Z:abc by bosborne@kos.net
M:2/4
L:1/8
K:A
c/d/|e/a/g/a/ f/e/c/f/|e/c/A/B/ c/A/F/A/|E/C/A,/C/ E/A/c/f/|e/c/A/c/ Bc/d/|\
e/a/g/a/ f/e/c/f/|e/c/A/B/ c/A/F/A/|E/C/A,/C/ E/A/c/f/|e/c/B/c/ A:|
|:G/A/|B/G/E/G/ B/d/c/B/|c/A/E/A/ c/e/c/A/|B/G/E/G/ B/d/c/B/|A/E/C/B,/ A,G/A/|\
B/G/E/G/ B/d/c/B/|c/A/E/A/ c/e/c/A/|B/G/E/G/ B/d/c/B/|A/c/B/G/ A:|
